X: 41954
T: Walking Stick, The
R: mazurka
M: 3/4
K: Dmajor
|:(3ABA|d2 f2 ag|ba .B2 (3gag|fe Ac eg|fd .F2 (3ABA|
d2 f2 (3a^ga|ba .B2 (3gag|fe Ac (3edc|d2d2:|
|:AF|D2 (3FGA df|.a2 ge (3Acd|.g2 fd (3ABd|.f2 dA FE|
D2 (3FGA df|.a2 ge (3Acd|.g2 fd Ad|(3FGA d2:|
|:AG|FE DF Ad|.f2 af ge|.B2 (3gfe (3fed|(3edc (3BAG (3FED|
F>E DF Ad|.f2 af ga|.b2 Ac (3edc|d4:|

